extras/DeviceResources/apple-iphone-x-mask.svg

<?xml version="1.0" encoding="UTF-8"?>
<svg width="1125px" height="2436px" viewBox="0 0 1125 2436" version="1.1" xmlns="http://www.w3.org/2000/svg" xmlns:xlink="http://www.w3.org/1999/xlink">
    <g id="Apple-iPhone-X" stroke="none" stroke-width="1" fill="none" fill-rule="evenodd">
        <g fill="#000000">
            <path d="M0,0 L1125,0 L1125,2436 L0,2436 L0,0 Z M876,26 C876,54.7939392 854.793939,90 806,90 L320,90 C271.206061,90 250,54.7939392 250,27 C250,13.1450152 249.999996,1.42108547e-14 227.000025,0 L130,0 C48.934969,0 0,48.934969 0,130 L0,2306 C0,2387.06503 48.934969,2436 130,2436 L995,2436 C1076.06503,2436 1125,2387.06503 1125,2306 L1125,130 C1125,48.934969 1076.06503,0 995,0 L899,0 C876,0 876,13.1450195 876,26 Z"></path>
        </g>
    </g>
</svg>

<svg width="1125" height="2436" viewBox="0 0 1125 2436" xmlns="http://www.w3.org/2000/svg"><path d="M0 0h1125v2436H0V0zm876 26c0 28.794-21.206 64-70 64H320c-48.794 0-70-35.206-70-63 0-13.855 0-27-23-27h-97C48.935 0 0 48.935 0 130v2176c0 81.065 48.935 130 130 130h865c81.065 0 130-48.935 130-130V130c0-81.065-48.935-130-130-130h-96c-23 0-23 13.145-23 26z" fill="#000" fill-rule="evenodd"/></svg>
